X: 2
T: The Trip To Pakistan
R: reel
M: 4/4
L: 1/8
K: Emin
|:Bc|~d3e dcBd|c2cA BGGF|EGBG ~c3d|BAGB A2:||:GE|DAAG ~A2cA|~B2dB ceGB|DAAG ABcA|BdcB A2:|


Tune 112	Setting 30223

